templates/flag_icons/ug.svg

<?xml version="1.0" encoding="UTF-8" standalone="no"?>
<svg width="23px" height="17px" viewBox="0 0 23 17" version="1.1" xmlns="http://www.w3.org/2000/svg" xmlns:xlink="http://www.w3.org/1999/xlink">
    <!-- Generator: Sketch 3.7.2 (28276) - http://www.bohemiancoding.com/sketch -->
    <title>UG</title>
    <desc>Created with Sketch.</desc>
    <defs>
        <linearGradient x1="50%" y1="0%" x2="50%" y2="100%" id="linearGradient-1">
            <stop stop-color="#FFFFFF" offset="0%"></stop>
            <stop stop-color="#F0F0F0" offset="100%"></stop>
        </linearGradient>
        <rect id="path-2" x="0" y="0" width="21" height="15" rx="1.5"></rect>
        <filter x="-50%" y="-50%" width="200%" height="200%" filterUnits="objectBoundingBox" id="filter-4">
            <feOffset dx="0" dy="0.5" in="SourceAlpha" result="shadowOffsetOuter1"></feOffset>
            <feGaussianBlur stdDeviation="0.5" in="shadowOffsetOuter1" result="shadowBlurOuter1"></feGaussianBlur>
            <feColorMatrix values="0 0 0 0 0   0 0 0 0 0   0 0 0 0 0  0 0 0 0.16 0" type="matrix" in="shadowBlurOuter1"></feColorMatrix>
        </filter>
        <linearGradient x1="50%" y1="0%" x2="50%" y2="100%" id="linearGradient-5">
            <stop stop-color="#262626" offset="0%"></stop>
            <stop stop-color="#0C0C0C" offset="100%"></stop>
        </linearGradient>
        <rect id="path-6" x="0" y="0" width="21" height="2"></rect>
        <filter x="-50%" y="-50%" width="200%" height="200%" filterUnits="objectBoundingBox" id="filter-7">
            <feMorphology radius="0.25" operator="dilate" in="SourceAlpha" result="shadowSpreadOuter1"></feMorphology>
            <feOffset dx="0" dy="0" in="shadowSpreadOuter1" result="shadowOffsetOuter1"></feOffset>
            <feColorMatrix values="0 0 0 0 0   0 0 0 0 0   0 0 0 0 0  0 0 0 0.06 0" type="matrix" in="shadowOffsetOuter1"></feColorMatrix>
        </filter>
        <rect id="path-8" x="0" y="8" width="21" height="2"></rect>
        <filter x="-50%" y="-50%" width="200%" height="200%" filterUnits="objectBoundingBox" id="filter-9">
            <feMorphology radius="0.25" operator="dilate" in="SourceAlpha" result="shadowSpreadOuter1"></feMorphology>
            <feOffset dx="0" dy="0" in="shadowSpreadOuter1" result="shadowOffsetOuter1"></feOffset>
            <feColorMatrix values="0 0 0 0 0   0 0 0 0 0   0 0 0 0 0  0 0 0 0.06 0" type="matrix" in="shadowOffsetOuter1"></feColorMatrix>
        </filter>
        <linearGradient x1="50%" y1="0%" x2="50%" y2="100%" id="linearGradient-10">
            <stop stop-color="#EE1622" offset="0%"></stop>
            <stop stop-color="#D70915" offset="100%"></stop>
        </linearGradient>
        <rect id="path-11" x="0" y="5" width="21" height="3"></rect>
        <filter x="-50%" y="-50%" width="200%" height="200%" filterUnits="objectBoundingBox" id="filter-12">
            <feMorphology radius="0.25" operator="dilate" in="SourceAlpha" result="shadowSpreadOuter1"></feMorphology>
            <feOffset dx="0" dy="0" in="shadowSpreadOuter1" result="shadowOffsetOuter1"></feOffset>
            <feColorMatrix values="0 0 0 0 0   0 0 0 0 0   0 0 0 0 0  0 0 0 0.06 0" type="matrix" in="shadowOffsetOuter1"></feColorMatrix>
        </filter>
        <linearGradient x1="50%" y1="0%" x2="50%" y2="100%" id="linearGradient-13">
            <stop stop-color="#FFE044" offset="0%"></stop>
            <stop stop-color="#FCDB32" offset="100%"></stop>
        </linearGradient>
        <rect id="path-14" x="0" y="2" width="21" height="3"></rect>
        <filter x="-50%" y="-50%" width="200%" height="200%" filterUnits="objectBoundingBox" id="filter-15">
            <feMorphology radius="0.25" operator="dilate" in="SourceAlpha" result="shadowSpreadOuter1"></feMorphology>
            <feOffset dx="0" dy="0" in="shadowSpreadOuter1" result="shadowOffsetOuter1"></feOffset>
            <feColorMatrix values="0 0 0 0 0   0 0 0 0 0   0 0 0 0 0  0 0 0 0.06 0" type="matrix" in="shadowOffsetOuter1"></feColorMatrix>
        </filter>
        <rect id="path-16" x="0" y="13" width="21" height="2"></rect>
        <filter x="-50%" y="-50%" width="200%" height="200%" filterUnits="objectBoundingBox" id="filter-17">
            <feMorphology radius="0.25" operator="dilate" in="SourceAlpha" result="shadowSpreadOuter1"></feMorphology>
            <feOffset dx="0" dy="0" in="shadowSpreadOuter1" result="shadowOffsetOuter1"></feOffset>
            <feColorMatrix values="0 0 0 0 0   0 0 0 0 0   0 0 0 0 0  0 0 0 0.06 0" type="matrix" in="shadowOffsetOuter1"></feColorMatrix>
        </filter>
        <rect id="path-18" x="0" y="10" width="21" height="3"></rect>
        <filter x="-50%" y="-50%" width="200%" height="200%" filterUnits="objectBoundingBox" id="filter-19">
            <feMorphology radius="0.25" operator="dilate" in="SourceAlpha" result="shadowSpreadOuter1"></feMorphology>
            <feOffset dx="0" dy="0" in="shadowSpreadOuter1" result="shadowOffsetOuter1"></feOffset>
            <feColorMatrix values="0 0 0 0 0   0 0 0 0 0   0 0 0 0 0  0 0 0 0.06 0" type="matrix" in="shadowOffsetOuter1"></feColorMatrix>
        </filter>
        <circle id="path-20" cx="11.5" cy="8.5" r="3.5"></circle>
        <filter x="-50%" y="-50%" width="200%" height="200%" filterUnits="objectBoundingBox" id="filter-21">
            <feOffset dx="0" dy="0.5" in="SourceAlpha" result="shadowOffsetOuter1"></feOffset>
            <feColorMatrix values="0 0 0 0 0   0 0 0 0 0   0 0 0 0 0  0 0 0 0.06 0" type="matrix" in="shadowOffsetOuter1"></feColorMatrix>
        </filter>
    </defs>
    <g id="Flag-Kit" stroke="none" stroke-width="1" fill="none" fill-rule="evenodd">
        <g id="UG">
            <g id="AE-Copy-6" transform="translate(1.000000, 1.000000)">
                <mask id="mask-3" fill="white">
                    <use xlink:href="#path-2"></use>
                </mask>
                <g id="Mask">
                    <use fill="black" fill-opacity="1" filter="url(#filter-4)" xlink:href="#path-2"></use>
                    <use fill="url(#linearGradient-1)" fill-rule="evenodd" xlink:href="#path-2"></use>
                </g>
                <g id="Rectangle-2" mask="url(#mask-3)">
                    <use fill="black" fill-opacity="1" filter="url(#filter-7)" xlink:href="#path-6"></use>
                    <use fill="url(#linearGradient-5)" fill-rule="evenodd" xlink:href="#path-6"></use>
                </g>
                <g id="Rectangle-2" mask="url(#mask-3)">
                    <use fill="black" fill-opacity="1" filter="url(#filter-9)" xlink:href="#path-8"></use>
                    <use fill="url(#linearGradient-5)" fill-rule="evenodd" xlink:href="#path-8"></use>
                </g>
                <g id="Rectangle-2" mask="url(#mask-3)">
                    <use fill="black" fill-opacity="1" filter="url(#filter-12)" xlink:href="#path-11"></use>
                    <use fill="url(#linearGradient-10)" fill-rule="evenodd" xlink:href="#path-11"></use>
                </g>
                <g id="Rectangle-2" mask="url(#mask-3)">
                    <use fill="black" fill-opacity="1" filter="url(#filter-15)" xlink:href="#path-14"></use>
                    <use fill="url(#linearGradient-13)" fill-rule="evenodd" xlink:href="#path-14"></use>
                </g>
                <g id="Rectangle-2" mask="url(#mask-3)">
                    <use fill="black" fill-opacity="1" filter="url(#filter-17)" xlink:href="#path-16"></use>
                    <use fill="url(#linearGradient-10)" fill-rule="evenodd" xlink:href="#path-16"></use>
                </g>
                <g id="Rectangle-2" mask="url(#mask-3)">
                    <use fill="black" fill-opacity="1" filter="url(#filter-19)" xlink:href="#path-18"></use>
                    <use fill="url(#linearGradient-13)" fill-rule="evenodd" xlink:href="#path-18"></use>
                </g>
                <rect id="Depth" mask="url(#mask-3)" x="0" y="0" width="21" height="15" rx="1.5"></rect>
            </g>
            <g id="Oval-220">
                <use fill="black" fill-opacity="1" filter="url(#filter-21)" xlink:href="#path-20"></use>
                <use fill="url(#linearGradient-1)" fill-rule="evenodd" xlink:href="#path-20"></use>
            </g>
            <path d="M10.6805115,6.68051147 C10.5808177,6.58081774 10.578125,6.421875 10.6805115,6.31948853 L10.8194885,6.18051147 C10.9191823,6.08081774 11.0724682,5.9091568 11.1580395,5.81756592 L11.2801239,5.71923828 C11.4015581,5.73622751 11.5972101,5.68297577 11.7223398,5.70728302 L11.8409911,5.79915619 C11.9288093,5.91007916 11.9538574,6.09228516 11.8840332,6.23193361 L11.6159668,6.76806645 C11.5519201,6.89615984 11.5,7.11596685 11.5,7.25000005 L11.5,7.25000005 C11.5,7.38807124 11.5922852,7.54614262 11.7319336,7.61596682 L12.2680664,7.88403316 C12.3961598,7.94807984 12.5784683,8.07846826 12.6741867,8.17418664 L13.3258133,8.82581323 C13.422014,8.92201389 13.4538574,9.09228511 13.3840332,9.23193358 L13.1159668,9.76806652 C13.0519201,9.89615994 12.921875,9.92187513 12.8194885,9.81948861 L12.6805115,9.68051149 C12.5808177,9.58081771 12.421875,9.57812497 12.3194885,9.68051149 L12.1805115,9.81948861 C12.0808177,9.91918239 12,10.115967 12,10.2500002 L12,10.2500002 C12,10.3880714 12.078125,10.5781251 12.1805115,10.6805116 L12.3194885,10.8194886 C12.4191823,10.9191823 12.3822975,11 12.2523055,11 L11.2476945,11 C11.1108966,11 11.078125,10.921875 11.1805115,10.8194885 L11.3194885,10.6805115 C11.4191823,10.5808177 11.5,10.3840332 11.5,10.25 L11.5,10.25 C11.5,10.1119288 11.3840332,10 11.25,10 L11.25,10 C11.1119288,10 10.921875,10.078125 10.8194885,10.1805115 L10.6805115,10.3194885 C10.5808177,10.4191823 10.421875,10.421875 10.3194885,10.3194885 L10.1805115,10.1805115 C10.0808177,10.0808177 10.078125,9.921875 10.1805115,9.81948853 L10.3194885,9.68051147 C10.4191823,9.58081774 10.6070175,9.5 10.7523422,9.5 L11.2476578,9.5 C11.3870225,9.5 11.4193535,9.41935349 11.3279309,9.32793093 L10.1720691,8.17206907 C10.0770379,8.07703795 10.0784683,7.92153168 10.1741867,7.82581329 L10.8258133,7.17418671 C10.922014,7.07798604 10.921875,6.921875 10.8194885,6.81948853 L10.6805115,6.68051147 Z" id="Rectangle-1723" fill="url(#linearGradient-5)"></path>
        </g>
    </g>
</svg>

<svg width="23" height="17" viewBox="0 0 23 17" xmlns="http://www.w3.org/2000/svg" xmlns:xlink="http://www.w3.org/1999/xlink"><title>UG</title><defs><linearGradient x1="50%" y1="0%" x2="50%" y2="100%" id="c"><stop stop-color="#FFF" offset="0%"/><stop stop-color="#F0F0F0" offset="100%"/></linearGradient><rect id="a" width="21" height="15" rx="1.5"/><filter x="-50%" y="-50%" width="200%" height="200%" filterUnits="objectBoundingBox" id="b"><feOffset dy=".5" in="SourceAlpha" result="shadowOffsetOuter1"/><feGaussianBlur stdDeviation=".5" in="shadowOffsetOuter1" result="shadowBlurOuter1"/><feColorMatrix values="0 0 0 0 0 0 0 0 0 0 0 0 0 0 0 0 0 0 0.16 0" in="shadowBlurOuter1"/></filter><linearGradient x1="50%" y1="0%" x2="50%" y2="100%" id="g"><stop stop-color="#262626" offset="0%"/><stop stop-color="#0C0C0C" offset="100%"/></linearGradient><path id="f" d="M0 0h21v2H0z"/><filter x="-50%" y="-50%" width="200%" height="200%" filterUnits="objectBoundingBox" id="e"><feMorphology radius=".25" operator="dilate" in="SourceAlpha" result="shadowSpreadOuter1"/><feOffset in="shadowSpreadOuter1" result="shadowOffsetOuter1"/><feColorMatrix values="0 0 0 0 0 0 0 0 0 0 0 0 0 0 0 0 0 0 0.06 0" in="shadowOffsetOuter1"/></filter><path id="i" d="M0 8h21v2H0z"/><filter x="-50%" y="-50%" width="200%" height="200%" filterUnits="objectBoundingBox" id="h"><feMorphology radius=".25" operator="dilate" in="SourceAlpha" result="shadowSpreadOuter1"/><feOffset in="shadowSpreadOuter1" result="shadowOffsetOuter1"/><feColorMatrix values="0 0 0 0 0 0 0 0 0 0 0 0 0 0 0 0 0 0 0.06 0" in="shadowOffsetOuter1"/></filter><linearGradient x1="50%" y1="0%" x2="50%" y2="100%" id="l"><stop stop-color="#EE1622" offset="0%"/><stop stop-color="#D70915" offset="100%"/></linearGradient><path id="k" d="M0 5h21v3H0z"/><filter x="-50%" y="-50%" width="200%" height="200%" filterUnits="objectBoundingBox" id="j"><feMorphology radius=".25" operator="dilate" in="SourceAlpha" result="shadowSpreadOuter1"/><feOffset in="shadowSpreadOuter1" result="shadowOffsetOuter1"/><feColorMatrix values="0 0 0 0 0 0 0 0 0 0 0 0 0 0 0 0 0 0 0.06 0" in="shadowOffsetOuter1"/></filter><linearGradient x1="50%" y1="0%" x2="50%" y2="100%" id="o"><stop stop-color="#FFE044" offset="0%"/><stop stop-color="#FCDB32" offset="100%"/></linearGradient><path id="n" d="M0 2h21v3H0z"/><filter x="-50%" y="-50%" width="200%" height="200%" filterUnits="objectBoundingBox" id="m"><feMorphology radius=".25" operator="dilate" in="SourceAlpha" result="shadowSpreadOuter1"/><feOffset in="shadowSpreadOuter1" result="shadowOffsetOuter1"/><feColorMatrix values="0 0 0 0 0 0 0 0 0 0 0 0 0 0 0 0 0 0 0.06 0" in="shadowOffsetOuter1"/></filter><path id="q" d="M0 13h21v2H0z"/><filter x="-50%" y="-50%" width="200%" height="200%" filterUnits="objectBoundingBox" id="p"><feMorphology radius=".25" operator="dilate" in="SourceAlpha" result="shadowSpreadOuter1"/><feOffset in="shadowSpreadOuter1" result="shadowOffsetOuter1"/><feColorMatrix values="0 0 0 0 0 0 0 0 0 0 0 0 0 0 0 0 0 0 0.06 0" in="shadowOffsetOuter1"/></filter><path id="s" d="M0 10h21v3H0z"/><filter x="-50%" y="-50%" width="200%" height="200%" filterUnits="objectBoundingBox" id="r"><feMorphology radius=".25" operator="dilate" in="SourceAlpha" result="shadowSpreadOuter1"/><feOffset in="shadowSpreadOuter1" result="shadowOffsetOuter1"/><feColorMatrix values="0 0 0 0 0 0 0 0 0 0 0 0 0 0 0 0 0 0 0.06 0" in="shadowOffsetOuter1"/></filter><circle id="u" cx="11.5" cy="8.5" r="3.5"/><filter x="-50%" y="-50%" width="200%" height="200%" filterUnits="objectBoundingBox" id="t"><feOffset dy=".5" in="SourceAlpha" result="shadowOffsetOuter1"/><feColorMatrix values="0 0 0 0 0 0 0 0 0 0 0 0 0 0 0 0 0 0 0.06 0" in="shadowOffsetOuter1"/></filter></defs><g fill="none" fill-rule="evenodd"><g transform="translate(1 1)"><mask id="d" fill="#fff"><use xlink:href="#a"/></mask><use fill="#000" filter="url(#b)" xlink:href="#a"/><use fill="url(#c)" xlink:href="#a"/><g mask="url(#d)"><use fill="#000" filter="url(#e)" xlink:href="#f"/><use fill="url(#g)" xlink:href="#f"/></g><g mask="url(#d)"><use fill="#000" filter="url(#h)" xlink:href="#i"/><use fill="url(#g)" xlink:href="#i"/></g><g mask="url(#d)"><use fill="#000" filter="url(#j)" xlink:href="#k"/><use fill="url(#l)" xlink:href="#k"/></g><g mask="url(#d)"><use fill="#000" filter="url(#m)" xlink:href="#n"/><use fill="url(#o)" xlink:href="#n"/></g><g mask="url(#d)"><use fill="#000" filter="url(#p)" xlink:href="#q"/><use fill="url(#l)" xlink:href="#q"/></g><g mask="url(#d)"><use fill="#000" filter="url(#r)" xlink:href="#s"/><use fill="url(#o)" xlink:href="#s"/></g><rect mask="url(#d)" width="21" height="15" rx="1.5"/></g><use fill="#000" filter="url(#t)" xlink:href="#u"/><use fill="url(#c)" xlink:href="#u"/><path d="M10.68 6.68a.25.25 0 0 1 0-.36l.14-.14.34-.36.12-.1c.12.02.32-.04.44-.01l.12.09c.09.11.11.3.04.43l-.26.54a1.3 1.3 0 0 0-.12.48c0 .14.1.3.23.37l.54.26c.13.07.3.2.4.3l.66.65c.1.1.12.26.05.4l-.26.54c-.07.13-.2.15-.3.05l-.14-.14a.25.25 0 0 0-.36 0l-.14.14c-.1.1-.18.3-.18.43 0 .14.08.33.18.43l.14.14c.1.1.06.18-.07.18h-1c-.14 0-.17-.08-.07-.18l.14-.14c.1-.1.18-.3.18-.43a.25.25 0 0 0-.25-.25.7.7 0 0 0-.43.18l-.14.14c-.1.1-.26.1-.36 0l-.14-.14a.25.25 0 0 1 0-.36l.14-.14a.7.7 0 0 1 .43-.18h.5c.14 0 .17-.08.08-.17l-1.16-1.16a.25.25 0 0 1 0-.34l.66-.66c.1-.1.1-.25-.01-.35l-.14-.14z" fill="url(#g)"/></g></svg>
